static/icons/basic/security.svg

<svg width="24" height="28" viewBox="0 0 24 28" fill="none" xmlns="http://www.w3.org/2000/svg">
<path d="M18.6663 11.3333V8.66667C18.6663 4.98477 15.6816 2 11.9997 2C8.31778 2 5.33301 4.98477 5.33301 8.66667V11.3333M11.9997 17.3333V20M7.73301 26H16.2663C18.5066 26 19.6267 26 20.4823 25.564C21.235 25.1805 21.8469 24.5686 22.2304 23.816C22.6663 22.9603 22.6663 21.8402 22.6663 19.6V17.7333C22.6663 15.4931 22.6663 14.373 22.2304 13.5174C21.8469 12.7647 21.235 12.1528 20.4823 11.7693C19.6267 11.3333 18.5066 11.3333 16.2663 11.3333H7.73301C5.4928 11.3333 4.37269 11.3333 3.51705 11.7693C2.7644 12.1528 2.15248 12.7647 1.76898 13.5174C1.33301 14.373 1.33301 15.4931 1.33301 17.7333V19.6C1.33301 21.8402 1.33301 22.9603 1.76898 23.816C2.15248 24.5686 2.7644 25.1805 3.51705 25.564C4.37269 26 5.4928 26 7.73301 26Z" stroke="#121315" stroke-width="2.66667" stroke-linecap="round" stroke-linejoin="round"/>
</svg>

<svg xmlns="http://www.w3.org/2000/svg" width="24" height="28" fill="none"><path stroke="#121315" stroke-linecap="round" stroke-linejoin="round" stroke-width="2.667" d="M18.666 11.333V8.667a6.667 6.667 0 1 0-13.333 0v2.666m6.667 6V20m-4.267 6h8.533c2.24 0 3.36 0 4.216-.436a4 4 0 0 0 1.748-1.748c.436-.856.436-1.976.436-4.216v-1.867c0-2.24 0-3.36-.436-4.216a4 4 0 0 0-1.748-1.748c-.855-.436-1.975-.436-4.216-.436H7.733c-2.24 0-3.36 0-4.216.436a4 4 0 0 0-1.748 1.748c-.436.856-.436 1.976-.436 4.216V19.6c0 2.24 0 3.36.436 4.216a4 4 0 0 0 1.748 1.748C4.373 26 5.493 26 7.733 26"/></svg>
